X: 1
T: Reel For Rubik
Z: jdicarlo
S: https://thesession.org/tunes/14043#setting25507
R: reel
M: 4/4
L: 1/8
K: Dmaj
zAde fdAF | GBde fdeB | .d2B2 ~B2AB | AFED ABGF |
DAde f/e/d AF | GBde faef | dBBA ~B2AB | AFGF D3z :|
~F3G AFGA | BG2B ~G2A2 | B3c dz de | fdA2- ABG2 |
~F3G AFGA | BG2B ~G2A2 | BA~A2 BA~A2 | BAFE D3z |
~F3G AFGA | GFGA ~G2A2 | B3c dAde | f/e/d c2- cdAG |
~F3G AFGA | BGdB ~G2A2 | BA~A2 BA~A2 | BAFE D3z ||
